;FLAVOR:UltiGCode
;TIME:8081
;MATERIAL:13939
;MATERIAL2:0
;NOZZLE_DIAMETER:0.4
;Generated with Cura_SteamEngine 2.3.1

;LAYER_COUNT:32
;LAYER:0
M107
G10
G0 F3600 X62.971 Y29.342 Z.3
;TYPE:SKIRT
G11
G1 F1800 X63.289 Y28.773 E0.07822
G1 X63.587 Y28.348 E0.14051
G1 X63.909 Y27.958 E0.2012
G1 X64.146 Y27.737 E0.24008
G1 X64.95 Y27.06 E0.36621
G1 X65.361 Y26.766 E0.42685
G1 X65.664 Y26.605 E0.46803
G1 X66.121 Y26.393 E0.52848
G1 X66.688 Y26.192 E0.60067
G1 X67.313 Y26.035 E0.678
G1 X67.812 Y25.951 E0.73872
G1 X68.093 Y25.939 E0.77247
G1 X154.88 Y25.935 E11.18691
G1 X155.384 Y25.975 E11.24758
G1 X155.782 Y26.065 E11.29655
G1 X156.67 Y26.326 E11.40761
G1 X157.143 Y26.506 E11.46835
G1 X157.605 Y26.776 E11.53256
G1 X158.458 Y27.374 E11.65757
G1 X158.848 Y27.696 E11.71826
G1 X159.078 Y27.944 E11.75885
G1 X159.4 Y28.33 E11.81917
G1 X159.742 Y28.829 E11.89176
G1 X160.055 Y29.394 E11.96927
G1 X160.264 Y29.855 E12.03001
G1 X160.361 Y30.172 E12.06979
G1 X160.58 Y31.052 E12.17861
G1 X160.674 Y31.734 E12.26122
G1 X160.685 Y32.121 E12.30768
G1 X160.639 Y32.759 E12.38444
G1 X160.085 Y35.95 E12.77309
G1 X159.314 Y41.387 E13.43206
G1 X158.852 Y46.856 E14.09068
G1 X158.699 Y52.321 E14.74673
G1 X158.739 Y89.665 E19.22801
G1 X159.049 Y95.129 E19.88475
G1 X159.67 Y100.603 E20.54584
G1 X160.647 Y106.592 E21.27402
G1 X160.689 Y107.096 E21.33471
G1 X160.644 Y107.64 E21.40022
G1 X160.088 Y110.931 E21.80073
G1 X159.314 Y116.387 E22.46201
G1 X158.852 Y121.856 E23.12062
G1 X158.699 Y127.321 E23.77668
G1 X158.739 Y164.664 E28.25784
G1 X159.049 Y170.128 E28.91458
G1 X159.668 Y175.589 E29.57409
G1 X160.648 Y181.616 E30.30683
G1 X160.689 Y182.119 E30.36739
G1 X160.676 Y182.419 E30.40343
G1 X160.633 Y182.892 E30.46042
G1 X160.51 Y183.525 E30.5378
G1 X158.557 Y190.007 E31.35018
G1 X158.373 Y190.478 E31.41086
G1 X158.118 Y190.914 E31.47147
G1 X157.735 Y191.368 E31.54275
G1 X155.668 Y193.397 E31.89032
G1 X155.28 Y193.721 E31.95098
G1 X154.846 Y193.981 E32.01169
G1 X154.463 Y194.14 E32.06145
G1 X153.485 Y194.475 E32.18551
G1 X153.361 Y194.515 E32.20114
G1 X151.86 Y194.962 E32.38908
G1 X151.366 Y195.067 E32.44968
G1 X150.92 Y195.095 E32.50331
G1 X135.1 Y194.96 E34.40178
G1 X130.636 Y195.098 E34.93771
G1 X130.533 Y195.1 E34.95008
G1 X121.897 Y195.09 E35.9864
G1 X121.798 Y195.088 E35.99828
G1 X117.868 Y194.962 E36.47012
G1 X111.013 Y195.094 E37.29288
G1 X110.924 Y195.095 E37.30356
G1 X95.086 Y194.96 E39.20418
G1 X86.652 Y195.138 E40.21649
G1 X81.147 Y195.45 E40.87815
G1 X75.701 Y196.068 E41.53586
G1 X70.042 Y197.042 E42.22493
G1 X69.501 Y197.088 E42.29008
G1 X67.512 Y197.089 E42.52876
G1 X67.008 Y197.049 E42.58943
G1 X66.516 Y196.931 E42.65015
G1 X66.049 Y196.736 E42.71088
G1 X65.619 Y196.471 E42.77149
G1 X65.236 Y196.141 E42.83216
G1 X64.91 Y195.754 E42.89288
G1 X64.649 Y195.322 E42.95344
G1 X64.459 Y194.853 E43.01417
G1 X64.343 Y194.345 E43.0767
G1 X63.554 Y188.863 E43.74131
G1 X62.402 Y183.136 E44.44232
G1 X62.339 Y182.509 E44.51794
G1 X62.338 Y181.699 E44.61514
G1 X62.39 Y181.12 E44.6849
G1 X62.916 Y178.239 E45.03633
G1 X63.686 Y172.813 E45.69398
G1 X64.148 Y167.344 E46.3526
G1 X64.301 Y161.879 E47.00865
G1 X64.261 Y124.535 E51.48993
G1 X63.951 Y119.071 E52.14667
G1 X63.33 Y113.593 E52.80824
G1 X62.353 Y107.594 E53.5376
G1 X62.311 Y107.09 E53.59829
G1 X62.356 Y106.545 E53.66392
G1 X62.914 Y103.257 E54.06412
G1 X63.686 Y97.814 E54.72381
G1 X64.148 Y92.345 E55.38243
G1 X64.301 Y86.88 E56.03849
G1 X64.261 Y49.535 E60.51989
G1 X63.951 Y44.071 E61.17663
G1 X63.33 Y38.597 E61.83772
G1 X62.353 Y32.605 E62.56625
G1 X62.311 Y32.101 E62.62694
G1 X62.348 Y31.604 E62.68675
G1 X62.481 Y30.738 E62.79189
G1 X62.597 Y30.246 E62.85255
G1 X62.706 Y29.956 E62.88972
G1 X62.971 Y29.342 E62.96997
G10
G0 F3600 X65.231 Y30.459
G0 X66.4 Y31.033
G0 X66.513 Y30.943
G0 X66.431 Y30.887
;TYPE:WALL-INNER
G11
G1 F1800 X66.594 Y30.643 E63.00519
G1 X66.791 Y30.419 E63.04098
G1 X66.804 Y30.404 E63.04336
G1 X66.817 Y30.393 E63.04541
G1 X67.043 Y30.194 E63.08154
G1 X67.286 Y30.032 E63.11659
G1 X67.299 Y30.023 E63.11849
G1 X67.318 Y30.014 E63.12101
G1 X67.579 Y29.885 E63.15595
G1 X67.862 Y29.79 E63.19177
G1 X67.879 Y29.784 E63.19393
G1 X67.897 Y29.781 E63.19612
G1 X68.184 Y29.722 E63.23128
G1 X68.484 Y29.704 E63.26735
G1 X68.523 Y29.701 E63.27204
G1 X69.045 Y29.701 E63.33468
G1 X69.131 Y29.701 E63.345
G1 X153.869 Y29.701 E73.51356
G1 X153.955 Y29.701 E73.52388
G1 X154.478 Y29.701 E73.58664
G1 X154.518 Y29.703 E73.59145
G1 X154.816 Y29.722 E73.62728
G1 X155.103 Y29.779 E73.66239
G1 X155.116 Y29.782 E73.66399
G1 X155.139 Y29.79 E73.66691
G1 X155.429 Y29.891 E73.70376
G1 X155.681 Y30.016 E73.73752
G1 X155.712 Y30.032 E73.74171
G1 X155.97 Y30.207 E73.77912
G1 X156.18 Y30.391 E73.81262
G1 X156.2 Y30.409 E73.81585
G1 X156.207 Y30.418 E73.81722
G1 X156.406 Y30.643 E73.85326
G1 X156.568 Y30.886 E73.88831
G1 X156.577 Y30.899 E73.89021
G1 X156.586 Y30.918 E73.89273
G1 X156.715 Y31.179 E73.92767
G1 X156.81 Y31.462 E73.96349
G1 X156.816 Y31.479 E73.96565
G1 X156.819 Y31.497 E73.96784
G1 X156.878 Y31.784 E74.003
G1 X156.895 Y32.084 E74.03906
G1 X156.897 Y32.101 E74.04111
G1 X156.896 Y32.118 E74.04316
G1 X156.878 Y32.417 E74.0791
G1 X156.82 Y32.703 E74.11412
G1 X156.816 Y32.722 E74.11645
G1 X156.811 Y32.738 E74.11846
G1 X156.715 Y33.022 E74.15444
G1 X156.587 Y33.283 E74.18932
G1 X156.579 Y33.299 E74.19147
G1 X156.568 Y33.316 E74.1939
G1 X156.404 Y33.56 E74.22918
G1 X156.209 Y33.782 E74.26463
G1 X156.196 Y33.797 E74.26702
G1 X156.183 Y33.808 E74.26906
G1 X155.957 Y34.007 E74.30519
G1 X155.716 Y34.168 E74.33997
G1 X155.703 Y34.177 E74.34187
G1 X155.683 Y34.187 E74.34456
G1 X155.423 Y34.315 E74.37933
G1 X155.137 Y34.41 E74.41549
G1 X154.899 Y34.49 E74.44563
G1 X154.899 Y104.711 E82.87215
G1 X155.136 Y104.79 E82.90212
G1 X155.423 Y104.886 E82.93844
G1 X155.682 Y105.013 E82.97305
G1 X155.703 Y105.024 E82.9759
G1 X155.715 Y105.032 E82.97763
G1 X155.957 Y105.194 E83.01258
G1 X156.181 Y105.391 E83.04837
G1 X156.196 Y105.404 E83.05075
G1 X156.207 Y105.417 E83.0528
G1 X156.406 Y105.643 E83.08893
G1 X156.568 Y105.886 E83.12398
G1 X156.577 Y105.899 E83.12588
G1 X156.586 Y105.918 E83.1284
G1 X156.715 Y106.179 E83.16334
G1 X156.81 Y106.462 E83.19916
G1 X156.816 Y106.479 E83.20132
G1 X156.819 Y106.497 E83.20351
G1 X156.878 Y106.784 E83.23867
G1 X156.895 Y107.083 E83.27461
G1 X156.897 Y107.1 E83.27666
G1 X156.896 Y107.117 E83.27871
G1 X156.878 Y107.417 E83.31477
G1 X156.82 Y107.703 E83.34979
G1 X156.816 Y107.722 E83.35212
G1 X156.811 Y107.738 E83.35413
G1 X156.715 Y108.022 E83.39011
G1 X156.587 Y108.283 E83.42499
G1 X156.577 Y108.302 E83.42757
G1 X156.568 Y108.316 E83.42956
G1 X156.406 Y108.558 E83.46451
G1 X156.209 Y108.782 E83.50031
G1 X156.196 Y108.797 E83.50269
G1 X156.183 Y108.808 E83.50473
G1 X155.957 Y109.007 E83.54087
G1 X155.733 Y109.156 E83.57315
G1 X155.703 Y109.177 E83.57755
G1 X155.423 Y109.315 E83.615
G1 X155.161 Y109.402 E83.64813
G1 X154.899 Y109.49 E83.6813
G1 X154.899 Y179.71 E92.1077
G1 X155.136 Y179.789 E92.13768
G1 X155.423 Y179.885 E92.17399
G1 X155.682 Y180.012 E92.20861
G1 X155.703 Y180.023 E92.21145
G1 X155.715 Y180.031 E92.21318
G1 X155.957 Y180.193 E92.24813
G1 X156.181 Y180.39 E92.28393
G1 X156.196 Y180.403 E92.28631
G1 X156.207 Y180.416 E92.28835
G1 X156.406 Y180.642 E92.32449
G1 X156.568 Y180.884 E92.35943
G1 X156.577 Y180.898 E92.36143
G1 X156.585 Y180.915 E92.36368
G1 X156.715 Y181.178 E92.39889
G1 X156.81 Y181.461 E92.43471
G1 X156.816 Y181.478 E92.43688
G1 X156.819 Y181.496 E92.43907
G1 X156.878 Y181.783 E92.47423
G1 X156.895 Y182.083 E92.51028
G1 X156.897 Y182.1 E92.51234
G1 X156.896 Y182.117 E92.51438
G1 X156.878 Y182.416 E92.55033
G1 X156.82 Y182.702 E92.58534
G1 X156.816 Y182.721 E92.58767
G1 X156.811 Y182.737 E92.58969
G1 X156.715 Y183.021 E92.62566
G1 X156.587 Y183.282 E92.66054
G1 X156.577 Y183.301 E92.66312
G1 X156.568 Y183.315 E92.66512
G1 X156.406 Y183.557 E92.70006
G1 X156.209 Y183.781 E92.73586
G1 X156.196 Y183.796 E92.73824
G1 X156.183 Y183.807 E92.74029
G1 X155.957 Y184.006 E92.77642
G1 X155.733 Y184.155 E92.8087
G1 X155.703 Y184.176 E92.8131
G1 X155.423 Y184.314 E92.85056
G1 X155.14 Y184.408 E92.88634
G1 X154.899 Y184.489 E92.91685
G1 X154.899 Y184.527 E92.92141
G1 X154.899 Y188.5 E93.39817
G1 X152.9 Y188.5 E93.63805
G1 X152.9 Y190.5 E93.87805
G1 X151.7 Y190.5 E94.02205
G1 X151.7 Y31.301 E113.12593
G1 X71.301 Y31.301 E122.77381
G1 X71.301 Y190.852 E141.91993
G1 X70.853 Y191.3 E141.99596
G1 X68.901 Y191.3 E142.2302
G1 X68.901 Y193.299 E142.47008
G1 X68.101 Y193.299 E142.56608
G1 X68.101 Y184.526 E143.61884
G1 X68.101 Y184.489 E143.62328
G1 X67.864 Y184.41 E143.65326
G1 X67.577 Y184.314 E143.68957
G1 X67.32 Y184.188 E143.72392
G1 X67.297 Y184.176 E143.72703
G1 X67.287 Y184.169 E143.7285
G1 X67.043 Y184.006 E143.76371
G1 X66.819 Y183.809 E143.79951
G1 X66.804 Y183.796 E143.80189
G1 X66.793 Y183.783 E143.80393
G1 X66.594 Y183.557 E143.84007
G1 X66.432 Y183.315 E143.87501
G1 X66.423 Y183.301 E143.87701
G1 X66.415 Y183.284 E143.87927
G1 X66.285 Y183.021 E143.91447
G1 X66.19 Y182.738 E143.95029
G1 X66.184 Y182.721 E143.95246
G1 X66.181 Y182.703 E143.95465
G1 X66.122 Y182.416 E143.98981
G1 X66.105 Y182.117 E144.02575
G1 X66.103 Y182.1 E144.0278
G1 X66.104 Y182.083 E144.02984
G1 X66.122 Y181.783 E144.06591
G1 X66.18 Y181.497 E144.10093
G1 X66.184 Y181.478 E144.10326
G1 X66.189 Y181.462 E144.10527
G1 X66.285 Y181.178 E144.14124
G1 X66.413 Y180.917 E144.17613
G1 X66.423 Y180.898 E144.1787
G1 X66.432 Y180.884 E144.1807
G1 X66.594 Y180.642 E144.21565
G1 X66.791 Y180.418 E144.25144
G1 X66.804 Y180.403 E144.25382
G1 X66.817 Y180.392 E144.25587
G1 X67.043 Y180.193 E144.292
G1 X67.286 Y180.031 E144.32705
G1 X67.297 Y180.023 E144.32868
G1 X67.318 Y180.013 E144.33147
G1 X67.577 Y179.885 E144.36614
G1 X67.863 Y179.79 E144.4023
G1 X68.101 Y179.71 E144.43243
G1 X68.101 Y109.49 E152.85883
G1 X67.864 Y109.411 E152.88881
G1 X67.577 Y109.315 E152.92513
G1 X67.32 Y109.189 E152.95948
G1 X67.297 Y109.177 E152.96259
G1 X67.287 Y109.17 E152.96405
G1 X67.043 Y109.007 E152.99927
G1 X66.819 Y108.81 E153.03506
G1 X66.804 Y108.797 E153.03744
G1 X66.793 Y108.784 E153.03949
G1 X66.594 Y108.558 E153.07562
G1 X66.432 Y108.316 E153.11057
G1 X66.423 Y108.302 E153.11257
G1 X66.415 Y108.285 E153.11482
G1 X66.285 Y108.022 E153.15003
G1 X66.19 Y107.739 E153.18585
G1 X66.184 Y107.722 E153.18801
G1 X66.181 Y107.704 E153.1902
G1 X66.122 Y107.417 E153.22536
G1 X66.105 Y107.117 E153.26142
G1 X66.103 Y107.1 E153.26347
G1 X66.104 Y107.083 E153.26552
G1 X66.122 Y106.784 E153.30146
G1 X66.18 Y106.498 E153.33648
G1 X66.184 Y106.479 E153.33881
G1 X66.189 Y106.463 E153.34082
G1 X66.285 Y106.179 E153.3768
G1 X66.412 Y105.92 E153.41141
G1 X66.423 Y105.899 E153.41426
G1 X66.431 Y105.887 E153.41599
G1 X66.594 Y105.643 E153.4512
G1 X66.791 Y105.419 E153.487
G1 X66.804 Y105.404 E153.48938
G1 X66.817 Y105.393 E153.49142
G1 X67.043 Y105.194 E153.52756
G1 X67.286 Y105.032 E153.5626
G1 X67.297 Y105.024 E153.56423
G1 X67.318 Y105.014 E153.56703
G1 X67.577 Y104.886 E153.60169
G1 X67.863 Y104.791 E153.63786
G1 X68.101 Y104.711 E153.66799
G1 X68.101 Y34.49 E162.09451
G1 X67.864 Y34.411 E162.12449
G1 X67.577 Y34.315 E162.1608
G1 X67.338 Y34.197 E162.19279
G1 X67.297 Y34.177 E162.19826
G1 X67.043 Y34.007 E162.23494
G1 X66.822 Y33.813 E162.27023
G1 X66.804 Y33.797 E162.27312
G1 X66.795 Y33.786 E162.27482
G1 X66.596 Y33.56 E162.31096
G1 X66.434 Y33.318 E162.3459
G1 X66.421 Y33.299 E162.34867
G1 X66.414 Y33.284 E162.35065
G1 X66.285 Y33.022 E162.3857
G1 X66.19 Y32.739 E162.42152
G1 X66.184 Y32.722 E162.42368
G1 X66.181 Y32.704 E162.42587
G1 X66.122 Y32.417 E162.46103
G1 X66.105 Y32.118 E162.49697
G1 X66.103 Y32.101 E162.49902
G1 X66.104 Y32.084 E162.50107
G1 X66.122 Y31.784 E162.53713
G1 X66.18 Y31.498 E162.57215
G1 X66.184 Y31.479 E162.57448
G1 X66.189 Y31.463 E162.57649
G1 X66.285 Y31.179 E162.61247
G1 X66.412 Y30.92 E162.64708
G1 X66.423 Y30.899 E162.64993
G1 X66.431 Y30.887 E162.65166
G0 F3600 X66.676 Y31.049
G1 F1800 X66.574 Y31.297 E162.6757
G1 X66.467 Y31.556 E162.70029
G1 X66.433 Y31.824 E162.7245
G1 X66.396 Y32.101 E162.74955
G1 X66.432 Y32.376 E162.77431
G1 X66.467 Y32.645 E162.79858
G1 X66.573 Y32.903 E162.8235
G1 X66.676 Y33.154 E162.84773
G1 X66.842 Y33.369 E162.872
G1 X67.014 Y33.592 E162.89679
G1 X67.231 Y33.755 E162.92113
G1 X67.468 Y33.932 E162.94812
G1 X67.696 Y34.026 E162.96845
G1 X67.956 Y34.134 E162.9936
G1 X68.145 Y34.159 E163.00781
G1 X68.501 Y34.207 E163.05091
G1 X69.045 Y34.134 E163.11678
G1 X69.554 Y33.925 E163.18281
G1 X69.989 Y33.589 E163.24877
G1 X70.325 Y33.154 E163.31472
G1 X70.534 Y32.645 E163.38075
G1 X70.607 Y32.101 E163.44662
G1 X70.534 Y31.556 E163.5126
G1 X70.325 Y31.049 E163.57841
G1 X69.989 Y30.612 E163.64456
G1 X69.554 Y30.276 E163.71052
G1 X69.124 Y30.099 E163.76632
G1 X69.045 Y30.067 E163.77611
G1 X68.501 Y29.996 E163.8308
G1 X68.225 Y30.032 E163.8557
G1 X67.956 Y30.067 E163.87996
G1 X67.698 Y30.173 E163.90488
G1 X67.449 Y30.276 E163.92893
G1 X67.235 Y30.441 E163.95314
G1 X67.012 Y30.612 E163.97837
G1 X66.842 Y30.833 E164.00338
G1 X66.676 Y31.049 E164.02743
G0 F3600 X66.59 Y31
G0 X66.429 Y31.546
G0 X66.356 Y32.101
G0 X66.429 Y32.655
G0 X66.642 Y33.035
G0 X66.658 Y33.67
G0 X66.832 Y33.769
G0 X68.133 Y34.467
G0 X68.501 Y104.896
G0 X68.501 Y104.996
G1 F1800 X68.144 Y105.042 E164.0689
G1 X67.956 Y105.067 E164.0835
G1 X67.697 Y105.174 E164.10853
G1 X67.449 Y105.276 E164.13254
G1 X67.235 Y105.441 E164.15675
G1 X67.012 Y105.612 E164.18198
G1 X66.842 Y105.833 E164.20698
G1 X66.676 Y106.049 E164.23103
G1 X66.574 Y106.297 E164.25507
G1 X66.467 Y106.556 E164.27966
G1 X66.432 Y106.825 E164.30395
G1 X66.396 Y107.1 E164.32875
G1 X66.432 Y107.376 E164.3536
G1 X66.467 Y107.645 E164.37787
G1 X66.573 Y107.903 E164.40279
G1 X66.676 Y108.154 E164.42674
G1 X66.84 Y108.367 E164.45072
G1 X67.012 Y108.589 E164.47585
G1 X67.233 Y108.759 E164.50086
G1 X67.449 Y108.925 E164.52487
G1 X67.696 Y109.026 E164.5488
G1 X67.956 Y109.134 E164.57395
G1 X68.143 Y109.158 E164.58915
G1 X68.501 Y109.205 E164.63248
G1 X69.045 Y109.134 E164.69832
G1 X69.554 Y108.925 E164.76434
G1 X69.989 Y108.589 E164.8303
G1 X70.325 Y108.154 E164.89626
G1 X70.534 Y107.645 E164.96229
G1 X70.607 Y107.1 E165.02827
G1 X70.534 Y106.555 E165.09426
G1 X70.325 Y106.049 E165.15995
G1 X69.989 Y105.612 E165.2261
G1 X69.554 Y105.276 E165.29206
G1 X69.045 Y105.067 E165.35809
G1 X68.501 Y104.996 E165.42392
G0 F3600 X68.501 Y104.896
G0 X67.946 Y105.029
G0 X67.43 Y105.242
G0 X66.984 Y105.584
G0 X66.642 Y106.03
G0 X66.429 Y106.546
G0 X66.356 Y107.1
G0 X66.429 Y107.655
G0 X66.642 Y108.174
G0 X66.984 Y108.617
G0 X67.43 Y108.959
G0 X67.946 Y109.172
G0 X68.501 Y109.165
G0 X68.501 Y179.895
G0 X68.501 Y179.995
G1 F1800 X68.144 Y180.041 E165.4654
G1 X67.956 Y180.066 E165.48
G1 X67.697 Y180.173 E165.50503
G1 X67.449 Y180.275 E165.52903
G1 X67.235 Y180.44 E165.55325
G1 X67.012 Y180.611 E165.57847
G1 X66.841 Y180.832 E165.60351
G1 X66.676 Y181.046 E165.62704
G1 X66.574 Y181.295 E165.65107
G1 X66.467 Y181.555 E165.67572
G1 X66.433 Y181.823 E165.69993
G1 X66.396 Y182.1 E165.72498
G1 X66.432 Y182.375 E165.74974
G1 X66.467 Y182.644 E165.77401
G1 X66.573 Y182.902 E165.79893
G1 X66.676 Y183.153 E165.82288
G1 X66.84 Y183.366 E165.84686
G1 X67.012 Y183.588 E165.87199
G1 X67.233 Y183.758 E165.897
G1 X67.449 Y183.924 E165.92101
G1 X67.696 Y184.025 E165.94494
G1 X67.956 Y184.133 E165.97009
G1 X68.143 Y184.157 E165.98529
G1 X68.179 Y184.161 E165.98964
G1 X68.501 Y184.204 E166.02862
G1 X69.045 Y184.133 E166.09446
G1 X69.554 Y183.924 E166.16048
G1 X69.989 Y183.588 E166.22644
G1 X70.325 Y183.153 E166.2924
G1 X70.534 Y182.644 E166.35843
G1 X70.607 Y182.1 E166.4243
G1 X70.534 Y181.555 E166.49028
G1 X70.325 Y181.046 E166.55631
G1 X69.989 Y180.611 E166.62227
G1 X69.554 Y180.275 E166.68823
G1 X69.045 Y180.066 E166.75425
G1 X68.501 Y179.995 E166.82009
G0 F3600 X68.501 Y179.895
G0 X71.339 Y179.968
G0 X71.273 Y31.273
G0 X151.728 Y31.273
G0 X152.295 Y182.1
G0 X152.395 Y182.1
G1 F1800 X152.466 Y182.644 E166.88592
G1 X152.675 Y183.153 E166.95195
G1 X153.011 Y183.588 E167.01791
